X:5
T:Angelsea Air
C:Phil Hardy arr. Adam Blaine
L:1/8
R:Slow Air
M:3/4
K:D
Q:"68 bpm"
[| {g}de | {g}f4 {ag}a2 | {ef}e4 de | {ge}f4 {gef}ed | {A}B4 {g}AB | {gc}d4 {g}de | {g}f4 {g}dA | {GdG}B4 {ge}f2 | {gef}e3 A{g}de | 
{g}f4 a2 | e6 | {a}gf {e}f2 {g}ed | {A}B3 {g}BAB | {gc}d4 {g}d/e/f | {gef}e3 {A}edc | {Gdc}d6 | {gdG}d4 {g}dc |
{gBd}B4 {G}B2 | {G}A3 {g}Ade | {gf}g2 a2 f/e/d | {A}B3 {g}BAB | {gc}d4 {g}de | {g}f4 {g}dA | {GdG}B4 {ge}f2 | {gef}e3 A{g}de |
{g}f4 {ag}a2 | {ef}e3 {g}Ade | {a}gf {e}f2 {g}ed | {A}B3 {g}BAB | {gc}d4 {g}d/e/f | {gef}e3 {A}edc | {Gdc}d6 |

